X:1
T:Title
%%score { ( 1 3 ) | ( 2 4 ) }
L:1/8
M:4/4
K:Eb
V:1 treble nm="Grand Piano"
V:3 treble 
V:2 bass 
V:4 bass 
V:1
 z4 z2[Q:1/4=100] EF | G2 B2 B2 AG | [CF]2 [A,C]2 [A,C]2 [CF][CE] | [B,D]2 [DF]2 [DA]2 [EG][DF] | %4
[M:7/8] E2 G2 B3 |[M:1/4] EF |[M:4/4] G2 B2 B2 AG |[M:9/8] F2 c- c [Fc]2- [Fc]cc | %8
[M:4/4] B B2 c B2 G2 |[M:7/8] [EG]2 [DF]2 E3 |[M:1/4] EF |[M:4/4] G2 B2 GE [DF]2 | %12
 z2 C2 B,2 G[GB] | [Ge]2 [Ge]2 [ce][Bd] [Ac]2 |[M:3/4] B2- [AB]2 B2 |[M:1/4] [Ac][GB] | %16
[M:4/4] A2 F2 z A,BA |[M:9/8] G2 B- B [Ge]2- [Ge]EF |[M:4/4] G2 B2 GE [DF]2 |[M:3/4] E6 |] %20
V:2
 z4 z2 [E,G,][E,A,E] | [E,B,E]2 [E,G,E]2 [E,G,E]2 [E,CE][E,B,E] | %2
 [A,,A,]2 [A,,E,]2 [A,,E,]2 [A,,A,][=A,,_G,] | [B,,F,]2 [B,,B,]2 [B,,F,]2 [B,,B,][B,,A,] | %4
[M:7/8] [E,G,]2 [E,B,E]2 [E,G,E]3 |[M:1/4] [E,G,][E,A,E] | %6
[M:4/4] [E,B,E]2 [E,G,E]2 [E,G,E]2 [E,CE][E,B,E] | %7
[M:9/8] [A,C]2 [G,B,=E]- [G,B,E] [C,F,]2- [C,F,][_G,=A,_E][G,A,E] | %8
[M:4/4] [G,B,E] [G,B,E]2 [A,E] [G,B,E]2 [B,E]2 |[M:7/8] [B,,B,]2 [B,,A,]2 [E,G,]3 | %10
[M:1/4] [E,G,][E,A,E] |[M:4/4] [E,B,E]2 [E,G,E]2 [E,B,E][E,G,] [B,,A,]2 | %12
 E,2- [E,-A,]2 [E,G,]2 [E,B,E][E,G,] | [E,B,]2 [E,B,]2 [E,E][E,E] [E,E]2 | %14
[M:3/4] [E,E]2 [F,D]2 [G,E]2 |[M:1/4] [E,E][E,E] |[M:4/4] [F,DF]2 [B,D]2 .[B,D]2 [G,B,E][F,B,D] | %17
[M:9/8] [E,B,E]2 [E,G,E]- [E,G,E] [E,B,]2- [E,B,][E,G,][E,A,E] | %18
[M:4/4] [E,B,E]2 [E,G,E]2 [E,B,E][E,G,] [B,,A,]2 |[M:3/4] G,2 z2 z2 |] %20
V:3
 x8 | x8 | x8 | x8 |[M:7/8] x7 |[M:1/4] x2 |[M:4/4] x8 |[M:9/8] x9 |[M:4/4] x8 |[M:7/8] x7 | %10
[M:1/4] x2 |[M:4/4] x8 | E6 z2 | x8 |[M:3/4] G2 z2 z2 |[M:1/4] x2 |[M:4/4] z4 F2 z2 |[M:9/8] x9 | %18
[M:4/4] x8 |[M:3/4] z2 C2 B,2 |] %20
V:4
 x8 | x8 | x8 | x8 |[M:7/8] x7 |[M:1/4] x2 |[M:4/4] x8 |[M:9/8] x9 |[M:4/4] x8 |[M:7/8] x7 | %10
[M:1/4] x2 |[M:4/4] x8 | G,2 z2 z4 | x8 |[M:3/4] x6 |[M:1/4] x2 |[M:4/4] x8 |[M:9/8] x9 | %18
[M:4/4] x8 |[M:3/4] E,2- [E,-A,]2 [E,G,]2 |] %20

